X: 15252
T: Girl Of The House, The
R: jig
M: 6/8
K: Dmixolydian
|:AG|F2D DFG|ABA GEA|DED AGE|F2D D2E|
FEF GFG|AGA cde|dcA GEA|1 DED D:|2 DED D2||
|:B|c2A AGF|G3 GFG|Add cAG|Ad^c d2e|
fed cAG|F2A GED|dcA GEA|DED D2:|

